X: 1
T: The Nervous Man
R: reel
M: 4/4
L: 1/8
K: Gmix
BdcA BG~G2|DGBd g^fde|=f2c_B AF~F2|CFAc fagf|
d2cA BG~G2|DGBd gdBd|cFAc fage|1 fdcA G3A:|2 fdcA G2 (3ABc||
K: Gmaj
|:dg~g2 fgaf|gfdc ABcA|dg~g2 fdfa|gbaf ~g3a|
gfdc AG~G2|AdcA GFDE|=FGAc fage|1 =fdcA G2 (3ABc:|2 =fdcA G3A||

composer: Paddy O'Brien
